X: 4
T: The Battle Of Killiecrankie
R: march
S: https://thesession.org/tunes/5961
S: Fiddle Hell Online 2021-11-1 (tweaked by JC for readability)
N: The 2nd part is the 1st part up an octave (partly), and slightly varied.
M: 4/4
L: 1/8
K: C
|: E>F |\
G2 G>A G2 E2  | G>E G<A G2 GE | G>FE>D C>D E<F | G4 G2 ||
E<G |\
A2 A>c A2 G<A | c2 A2  A2 (3GAB | c3d e2 d<c | A4 A2 ||
e<g |\
a2 ge g2 e<d | fe d<c d2 e2  | c2 c>A GA c<E | G4 G2 ||
c<B |\
A2 G<A c2 A<c | .d2 d3/c//d// e2 e>d | c3A G>A c<E | D4 C2  :|
|: e>f |\
g3a g2 g<e | g>e g<a g2 g<e | g>f e<d c>d e<f | g4 g2 ||
e<g |\
a2 a>c' a2 g2  | a>g a<c' a4 | a2 g<e d2 e<g | a4 a2 ||
e<g |\
a>g e<a g>e d<g | fe d<c d2 e2  | c2 c>A G>A c<E | G4 G2 ||
c<B |\
A2 G<A c2 A<c | .d2 d3/c//d// e2 e>d | c3A G>A c<E | D4 C2  :|
